X: 6
T: The Factory Smoke
R: hornpipe
M: 4/4
L: 1/8
K: Emin
|:BA|GFED EFGA|B2 E2 E2 fe|dcBA GABG|(3ABA (3GFE D2 BA|
GFED EFGA|Be^df e2 eB|cBAG AcBA|1G2 E2 E2:|2G2 E2 E2||
|:ef|geBG eBGE|B,EGB egfe|fdAF dAFD|A,DFA BAGF|
GFED EFGA|Be^df e2 eB|cBAG AcBA|1G2 E2 E2:|2G2 E2 E2||


Tune 1985	Setting 1985

